X:2448
T:Cambells Are Coming. GS.101
M:6/8
L:1/8
Q:120
S:George Spencer m/s, Leeds,1831
R:Jig
O:England
A:Leeds
H:1831
Z:vmp.Cherri  Graebe
K:G Major
GBe dBG | BcB B2 A | GBe dBG | ABA A2B | GBe dBG |! B2d g2a | bag gfe |
dBB B2 :||:
d| g2g gab | d2d d2B |! g2g gab | e2ee2e | gfe gab | d2d g2a | bag gf
e | dBB B2 :||


